public/img/psychology/b7-1.svg

<?xml version="1.0" encoding="UTF-8"?> <svg xmlns="http://www.w3.org/2000/svg" width="144" height="144" viewBox="0 0 144 144" fill="none"> <circle cx="72" cy="72" r="71.5" stroke="#27B783"></circle> <path fill-rule="evenodd" clip-rule="evenodd" d="M71.542 88.9697C67.3817 86.4093 63.5114 83.3958 60.0004 79.9832C57.532 77.5256 55.6528 74.5296 54.5068 71.2245C52.4446 64.8131 54.8534 57.4733 61.5947 55.3011C65.1377 54.1605 69.0071 54.8124 71.9926 57.0528C74.9792 54.8151 78.8473 54.1635 82.3905 55.3011C89.1317 57.4733 91.5579 64.8131 89.4957 71.2245C88.3497 74.5296 86.4705 77.5256 84.0021 79.9832C80.4911 83.3958 76.6208 86.4093 72.4605 88.9697L72.0099 89.25L71.542 88.9697Z" stroke="black" stroke-linecap="round" stroke-linejoin="round"></path> <path d="M79.167 62.5181C81.2088 63.1703 82.6596 65.0034 82.8409 67.1602" stroke="black" stroke-linecap="round" stroke-linejoin="round"></path> </svg>

<svg xmlns="http://www.w3.org/2000/svg" width="144" height="144" fill="none"><circle cx="72" cy="72" r="71.5" stroke="#27B783"/><path clip-rule="evenodd" d="M71.542 88.97A66.775 66.775 0 0160 79.983a22.981 22.981 0 01-5.493-8.758c-2.062-6.412.346-13.752 7.088-15.924a11.458 11.458 0 0110.398 1.752A11.475 11.475 0 0182.39 55.3c6.74 2.172 9.167 9.512 7.105 15.924a22.981 22.981 0 01-5.494 8.758 66.775 66.775 0 01-11.541 8.987l-.451.28-.468-.28z" stroke="#000" stroke-linecap="round" stroke-linejoin="round"/><path d="M79.167 62.518a5.331 5.331 0 013.674 4.642" stroke="#000" stroke-linecap="round" stroke-linejoin="round"/></svg>
